X: 522
T: Fishers Hornpipe
%R: hornpipe, reel
Z: 2018 John Chambers <jc:trillian.mit.edu>
B: John Treat - "Gamut for the Fifes", 1779, p.52 #2
F: https://archive.org/details/GamutFortheFifes
M: C|
L: 1/8
K: F
% - - - - - - - - - - - - - - - - - - - - - - - - -
|:\
fcAc BdcB | AcAc BdcB | AFAF BGBG | AFAF GEC2 |\
fcAc BdcB | AcAc BdcB | Aceg bgfe | f2f2 f4 :|
|:\
gece gebg | afeg f4   | gece gebf | afed c2c2 |\
dBFB dfef | cAFA Afef | eceg bgfe | bgfe f4 :|
% - - - - - - - - - - - - - - - - - - - - - - - - -
